docs/images/single-tenant/component-token-server-icon.svg

<?xml version="1.0" encoding="UTF-8" standalone="no"?>
<svg width="171px" height="87px" viewBox="0 0 171 87" version="1.1" xmlns="http://www.w3.org/2000/svg" xmlns:xlink="http://www.w3.org/1999/xlink">
    <!-- Generator: sketchtool 39.1 (31720) - http://www.bohemiancoding.com/sketch -->
    <title>C812E51A-2D92-47E9-8FD1-E25D39872AB8</title>
    <desc>Created with sketchtool.</desc>
    <defs></defs>
    <g id="Onegini-Documentation" stroke="none" stroke-width="1" fill="none" fill-rule="evenodd">
        <g id="Onegini-Documentation---Landing-Page" transform="translate(-180.000000, -1457.000000)" fill="#00AEEF">
            <g id="Key-Components" transform="translate(110.000000, 1285.000000)">
                <g id="Token-Server" transform="translate(0.000000, 85.000000)">
                    <g transform="translate(70.000000, 87.000000)" id="Fill-1">
                        <path d="M127.683304,65.1724873 C115.631621,65.1724873 105.827001,55.3683788 105.827001,43.3161848 C105.827001,31.2650138 115.631621,21.4598824 127.683304,21.4598824 C139.734986,21.4598824 149.540118,31.2650138 149.540118,43.3161848 C149.540118,55.3683788 139.734986,65.1724873 127.683304,65.1724873 M127.683304,0 C107.502196,0 90.5021674,13.8736804 85.7149472,32.5836861 L66.8571152,32.5836861 L66.8571152,12.4501487 L46.2509427,12.4501487 L46.2509427,32.5836861 L38.3256098,32.5836861 L38.3256098,12.4501487 L17.7194373,12.4501487 L17.7194373,32.5836861 L10.8099628,32.5836861 C4.96494029,32.5836861 0.0396123813,37.3647682 0.000226126299,43.2389468 C-0.0381371091,49.0548133 4.80995282,54.0486836 10.6554869,54.0486836 L85.7149472,54.0486836 C90.5021674,72.7586892 107.501684,86.6323696 127.683304,86.6323696 C151.567743,86.6323696 171,67.2011352 171,43.3161848 C171,19.431746 151.567743,0 127.683304,0"></path>
                    </g>
                </g>
            </g>
        </g>
    </g>
</svg>

<svg width="171" height="87" viewBox="0 0 171 87" xmlns="http://www.w3.org/2000/svg"><title>Mobile Identity &amp; Access</title><path d="M127.683 65.172c-12.051 0-21.856-9.804-21.856-21.856 0-12.051 9.805-21.856 21.856-21.856 12.052 0 21.857 9.805 21.857 21.856 0 12.052-9.805 21.856-21.857 21.856m0-65.172c-20.18 0-37.18 13.874-41.968 32.584H66.857V12.45H46.251v20.134h-7.925V12.45H17.719v20.134H10.81C4.965 32.584.04 37.364 0 43.239c-.038 5.816 4.81 10.81 10.655 10.81h75.06c4.787 18.71 21.787 32.583 41.968 32.583 23.885 0 43.317-19.43 43.317-43.316C171 19.432 151.568 0 127.683 0" fill="#EB4D00" fill-rule="evenodd"/></svg>
